symbolic/24x24/apps/nitrogen.svg

<svg xmlns="http://www.w3.org/2000/svg" width="24" height="24"><circle style="opacity:.2" cx="16" cy="12.5" r="6"/><circle style="fill:#5792f1" cx="16" cy="12" r="6"/><path style="opacity:.1;fill:#fff" d="M16 6a6 6 0 0 0-6 6 6 6 0 0 0 .01.285A6 6 0 0 1 16 6.5a6 6 0 0 1 5.99 5.715A6 6 0 0 0 22 12a6 6 0 0 0-6-6z"/><circle style="fill:#006ec9" cx="16" cy="12" r="4"/><circle style="opacity:.2" cx="12" cy="16.5" r="6"/><circle style="fill:#5792f1" cx="12" cy="16" r="6"/><circle style="fill:#006ec9" cx="12" cy="16" r="4"/><circle style="opacity:.2" cx="8" cy="12.5" r="6"/><circle style="fill:#5792f1" cx="8" cy="12" r="6"/><path style="opacity:.1;fill:#fff" d="M8 6a6 6 0 0 0-6 6 6 6 0 0 0 .01.285A6 6 0 0 1 8 6.5a6 6 0 0 1 5.99 5.715A6 6 0 0 0 14 12a6 6 0 0 0-6-6z"/><circle style="fill:#006ec9" cx="8" cy="12" r="4"/><circle style="fill:#5792f1" cx="12" cy="8" r="6"/><circle style="fill:#006ec9" cx="12" cy="8" r="4"/><circle style="opacity:.2" cx="12" cy="12.5" r="6"/><circle style="fill:#5792f1" cx="12" cy="12" r="6"/><circle style="fill:#006ec9" cx="12" cy="12" r="4"/><path style="opacity:.1;fill:#fff" d="M12 2a6 6 0 0 0-6 6 6 6 0 0 0 .01.285A6 6 0 0 1 12 2.5a6 6 0 0 1 5.99 5.715A6 6 0 0 0 18 8a6 6 0 0 0-6-6z"/><path style="opacity:.1;fill:#fff" d="M12 6a6 6 0 0 0-6 6 6 6 0 0 0 .01.285A6 6 0 0 1 12 6.5a6 6 0 0 1 5.99 5.715A6 6 0 0 0 18 12a6 6 0 0 0-6-6z"/></svg>

<svg xmlns="http://www.w3.org/2000/svg" width="24" height="24" version="1.1">
 <circle style="opacity:0.2" cx="16" cy="12.5" r="6"/>
 <circle style="fill:#5792f1" cx="16" cy="12" r="6"/>
 <path style="opacity:0.1;fill:#ffffff" d="M 16 6 A 6 6 0 0 0 10 12 A 6 6 0 0 0 10.009766 12.285156 A 6 6 0 0 1 16 6.5 A 6 6 0 0 1 21.990234 12.214844 A 6 6 0 0 0 22 12 A 6 6 0 0 0 16 6 z"/>
 <circle style="fill:#006ec9" cx="16" cy="12" r="4"/>
 <circle style="opacity:0.2" cx="12" cy="16.5" r="6"/>
 <circle style="fill:#5792f1" cx="12" cy="16" r="6"/>
 <circle style="fill:#006ec9" cx="12" cy="16" r="4"/>
 <circle style="opacity:0.2" cx="8" cy="12.5" r="6"/>
 <circle style="fill:#5792f1" cx="8" cy="12" r="6"/>
 <path style="opacity:0.1;fill:#ffffff" d="M 8 6 A 6 6 0 0 0 2 12 A 6 6 0 0 0 2.0097656 12.285156 A 6 6 0 0 1 8 6.5 A 6 6 0 0 1 13.990234 12.214844 A 6 6 0 0 0 14 12 A 6 6 0 0 0 8 6 z"/>
 <circle style="fill:#006ec9" cx="8" cy="12" r="4"/>
 <circle style="fill:#5792f1" cx="12" cy="8" r="6"/>
 <circle style="fill:#006ec9" cx="12" cy="8" r="4"/>
 <circle style="opacity:0.2" cx="12" cy="12.5" r="6"/>
 <circle style="fill:#5792f1" cx="12" cy="12" r="6"/>
 <circle style="fill:#006ec9" cx="12" cy="12" r="4"/>
 <path style="opacity:0.1;fill:#ffffff" d="M 12 2 A 6 6 0 0 0 6 8 A 6 6 0 0 0 6.0097656 8.2851562 A 6 6 0 0 1 12 2.5 A 6 6 0 0 1 17.990234 8.2148438 A 6 6 0 0 0 18 8 A 6 6 0 0 0 12 2 z"/>
 <path style="opacity:0.1;fill:#ffffff" d="M 12 6 A 6 6 0 0 0 6 12 A 6 6 0 0 0 6.0097656 12.285156 A 6 6 0 0 1 12 6.5 A 6 6 0 0 1 17.990234 12.214844 A 6 6 0 0 0 18 12 A 6 6 0 0 0 12 6 z"/>
</svg>
